packages/icons/src/svg/file-s3-o.svg

<svg xmlns="http://www.w3.org/2000/svg" viewBox="0 0 16 15">
	<path d="M14.618 10.982c.781-.39 1.171-.91 1.171-1.626 0-1.366-1.04-2.081-2.666-2.081-.91 0-1.692.325-2.407.976l.975 1.235c.456-.39.846-.585 1.301-.585.521 0 .781.26.781.65 0 .52-.39.846-1.626.846v1.43c1.561 0 1.821.326 1.821.91 0 .456-.39.717-1.106.717-.52 0-1.04-.261-1.496-.716l-.91 1.236c.585.65 1.431 1.04 2.667 1.04 1.56 0 2.861-.78 2.861-2.146 0-1.04-.585-1.626-1.366-1.886m-6.243-.585l-.911-.325c-.715-.26-1.106-.391-1.106-.781 0-.325.326-.52.781-.52.586 0 .975.195 1.496.52l.975-1.236c-.715-.715-1.691-1.04-2.536-1.04-1.691 0-2.862 1.04-2.862 2.34 0 1.107.716 1.822 1.561 2.147l.976.39c.65.26 1.04.39 1.04.716 0 .325-.26.52-.846.52-.585 0-1.235-.325-1.756-.715l-1.17 1.366c.845.715 1.951 1.106 2.862 1.106 1.886 0 2.991-1.171 2.991-2.407 0-1.04-.519-1.691-1.495-2.081m2.148-6.456c.353.368.841.616 1.358.616.646 0 1.03-.323 1.03-.803 0-.503-.36-.661-.826-.871l-.707-.308c-.458-.196-.998-.548-.998-1.27 0-.75.661-1.305 1.554-1.305.586 0 1.104.248 1.45.608l-.33.405c-.302-.285-.67-.465-1.12-.465-.556 0-.923.278-.923.72 0 .473.435.654.82.819l.704.3c.57.248 1.013.586 1.013 1.314 0 .78-.645 1.404-1.68 1.404a2.374 2.374 0 0 1-1.72-.728l.375-.436zM4.186.09h.646l.516 2.68.293 1.59h.03c.106-.531.225-1.064.346-1.59L6.7.09h.57l.685 2.68c.111.518.232 1.059.351 1.59h.03c.098-.531.188-1.064.278-1.59L9.133.09h.609L8.72 5.015h-.76l-.743-2.966c-.082-.382-.165-.735-.232-1.118h-.03c-.083.383-.167.736-.249 1.118L5.97 5.015h-.74L4.186.09zM2.905 3.513H1.111L.638 5.014H0L1.667.09h.705l1.667 4.924h-.661l-.473-1.5zm-.157-.503l-.233-.75A47.739 47.739 0 0 1 2.027.6h-.03a47.739 47.739 0 0 1-.488 1.66l-.24.75h1.479z"/>
</svg>

<svg xmlns="http://www.w3.org/2000/svg" viewBox="0 0 16 16">
  <g>
    <path fill="#F90" fill-rule="evenodd" d="M2.748,3.011 L2.515,2.26 C2.342,1.712 2.185,1.172 2.026,0.601 L1.997,0.601 C1.839,1.172 1.682,1.712 1.509,2.26 L1.269,3.011 L2.748,3.011 Z M2.904,3.514 L1.11,3.514 L0.638,5.015 L0,5.015 L1.667,0.091 L2.372,0.091 L4.039,5.015 L3.378,5.015 L2.904,3.514 Z M4.185,0.091 L4.831,0.091 L5.348,2.77 C5.446,3.303 5.543,3.829 5.641,4.362 L5.671,4.362 C5.777,3.829 5.896,3.297 6.018,2.77 L6.7,0.091 L7.27,0.091 L7.954,2.77 C8.066,3.288 8.186,3.829 8.306,4.362 L8.336,4.362 C8.435,3.829 8.524,3.297 8.614,2.77 L9.132,0.091 L9.74,0.091 L8.719,5.015 L7.961,5.015 L7.218,2.05 C7.135,1.667 7.052,1.315 6.985,0.931 L6.955,0.931 C6.873,1.315 6.789,1.667 6.707,2.05 L5.971,5.015 L5.228,5.015 L4.185,0.091 Z M10.523,3.942 C10.876,4.309 11.364,4.557 11.881,4.557 C12.527,4.557 12.91,4.235 12.91,3.755 C12.91,3.252 12.55,3.094 12.085,2.884 L11.378,2.575 C10.92,2.38 10.38,2.028 10.38,1.306 C10.38,0.555 11.041,0.001 11.934,0.001 C12.519,0.001 13.038,0.249 13.383,0.609 L13.053,1.013 C12.752,0.729 12.384,0.549 11.934,0.549 C11.378,0.549 11.011,0.826 11.011,1.27 C11.011,1.741 11.446,1.923 11.83,2.088 L12.535,2.387 C13.105,2.636 13.548,2.973 13.548,3.701 C13.548,4.483 12.903,5.106 11.867,5.106 C11.176,5.106 10.576,4.82 10.148,4.378 L10.523,3.942 Z M8.375,10.398 L7.464,10.073 C6.749,9.813 6.357,9.681 6.357,9.292 C6.357,8.967 6.684,8.772 7.139,8.772 C7.725,8.772 8.113,8.967 8.635,9.292 L9.609,8.055 C8.894,7.341 7.919,7.015 7.073,7.015 C5.383,7.015 4.212,8.055 4.212,9.357 C4.212,10.463 4.928,11.178 5.772,11.503 L6.749,11.894 C7.398,12.154 7.789,12.283 7.789,12.609 C7.789,12.933 7.528,13.129 6.942,13.129 C6.357,13.129 5.708,12.803 5.186,12.413 L4.017,13.78 C4.861,14.494 5.968,14.886 6.879,14.886 C8.765,14.886 9.869,13.715 9.869,12.479 C9.869,11.439 9.351,10.787 8.375,10.398 Z M14.618,10.983 C15.398,10.593 15.789,10.073 15.789,9.357 C15.789,7.99 14.749,7.276 13.123,7.276 C12.212,7.276 11.431,7.6 10.716,8.252 L11.69,9.487 C12.146,9.096 12.537,8.902 12.992,8.902 C13.513,8.902 13.772,9.161 13.772,9.552 C13.772,10.073 13.383,10.398 12.146,10.398 L12.146,11.828 C13.708,11.828 13.968,12.154 13.968,12.739 C13.968,13.194 13.578,13.454 12.861,13.454 C12.342,13.454 11.82,13.194 11.366,12.739 L10.456,13.974 C11.041,14.626 11.887,15.015 13.123,15.015 C14.683,15.015 15.983,14.235 15.983,12.868 C15.983,11.828 15.398,11.242 14.618,10.983 Z"/>
  </g>
</svg>
